img/ok-grey.svg

<svg width="22" height="21" viewBox="0 0 22 21" fill="none" xmlns="http://www.w3.org/2000/svg">
<g id="odnoklasnik">
<path id="Vector" d="M9.86135 0H11.1739C11.2327 0.0152886 11.2924 0.0269211 11.3527 0.034831C13.5511 0.208987 15.5272 0.977013 17.1968 2.41031C20.2375 5.02265 21.4851 8.34554 20.854 12.3087C20.0854 17.145 15.818 20.8511 10.9196 21.0008C8.35026 21.0798 6.03399 20.346 4.01726 18.7455C1.9274 17.0858 0.639227 14.9292 0.170748 12.2942C0.103989 11.9192 0.0650939 11.5395 0.0134277 11.1605V9.84734C0.0436147 9.59771 0.0714795 9.34751 0.10515 9.09847C0.405278 6.96216 1.26619 5.07954 2.71226 3.48137C4.33771 1.69047 6.3405 0.571811 8.72817 0.158482C9.10377 0.0934635 9.48343 0.0522467 9.86135 0ZM11.2708 13.5C11.6134 13.4419 11.917 13.3966 12.2159 13.3328C13.1366 13.1371 13.9627 12.7523 14.6396 12.0835C14.8138 11.9093 14.9211 11.7143 14.9049 11.4641C14.8602 10.7675 14.2152 10.375 13.579 10.6601C13.4743 10.7096 13.3739 10.7679 13.2789 10.8342C12.1619 11.5813 10.9376 11.8124 9.62159 11.5889C8.93948 11.47 8.29114 11.205 7.72097 10.8122C7.4789 10.6485 7.21999 10.5219 6.91754 10.5643C6.51756 10.6171 6.29406 10.8818 6.17215 11.2406C6.04269 11.6214 6.2006 11.9233 6.47808 12.1694C7.10015 12.7307 7.85859 13.1191 8.67767 13.2956C9.03527 13.374 9.39635 13.4355 9.75569 13.5046L9.81374 13.5708C9.71374 13.6316 9.61915 13.701 9.53103 13.778C8.71831 14.5879 7.9021 15.3971 7.09808 16.2162C6.70565 16.6168 6.72074 17.1497 7.10853 17.527C7.49631 17.9044 7.98685 17.9049 8.3996 17.5113C8.45765 17.4533 8.5157 17.3952 8.57376 17.3372C9.15002 16.7602 9.72396 16.1833 10.2956 15.6067C10.4918 15.4093 10.558 15.4099 10.753 15.6014C10.8064 15.6543 10.8581 15.7094 10.9109 15.7628C11.4949 16.3484 12.0791 16.9339 12.6635 17.5195C12.8777 17.7337 13.1279 17.855 13.4414 17.7877C13.6211 17.7554 13.7882 17.6736 13.924 17.5516C14.0597 17.4296 14.1588 17.2721 14.21 17.0969C14.3261 16.7352 14.1874 16.4455 13.9331 16.1907C13.127 15.3826 12.3216 14.5735 11.517 13.7635C11.4409 13.6869 11.369 13.6039 11.2708 13.5ZM10.5046 10.5904C12.5532 10.5875 14.2123 8.94289 14.21 6.91746C14.21 4.84791 12.5602 3.19285 10.5075 3.1975C9.53513 3.20968 8.60675 3.60449 7.92347 4.29639C7.24019 4.98828 6.85704 5.92154 6.85704 6.89395C6.85704 7.86636 7.24019 8.79962 7.92347 9.49151C8.60675 10.1834 9.53513 10.5782 10.5075 10.5904H10.5046Z" fill="#707070"/>
<path id="Vector_2" d="M10.5123 8.70137C10.1546 8.70057 9.80514 8.59365 9.50822 8.39417C9.2113 8.19468 8.98024 7.91159 8.84428 7.58073C8.70832 7.24986 8.67358 6.8861 8.74445 6.53548C8.81533 6.18487 8.98862 5.86316 9.24241 5.61107C9.4962 5.35899 9.81908 5.18787 10.1702 5.11937C10.5213 5.05086 10.8848 5.08806 11.2147 5.22625C11.5446 5.36444 11.8262 5.5974 12.0236 5.89566C12.2211 6.19392 12.3257 6.54406 12.3241 6.90177C12.325 7.13938 12.2787 7.37482 12.1878 7.59438C12.097 7.81394 11.9633 8.01324 11.7947 8.1807C11.6262 8.34815 11.426 8.48042 11.2058 8.5698C10.9856 8.65919 10.7499 8.70391 10.5123 8.70137Z" fill="#707070"/>
</g>
</svg>

<svg width="22" height="21" fill="none" xmlns="http://www.w3.org/2000/svg"><g fill="#707070"><path d="M9.861 0h1.313c.059.015.118.027.179.035 2.198.174 4.174.942 5.844 2.375 3.04 2.613 4.288 5.936 3.657 9.899-.769 4.836-5.036 8.542-9.934 8.692-2.57.079-4.886-.655-6.903-2.256-2.09-1.66-3.378-3.816-3.846-6.45-.067-.376-.106-.755-.158-1.134V9.847c.03-.25.058-.5.092-.749.3-2.136 1.161-4.018 2.607-5.617C4.338 1.691 6.34.571 8.728.158 9.104.093 9.483.052 9.861 0zm1.41 13.5c.342-.058.646-.103.945-.167.92-.196 1.747-.58 2.424-1.25.174-.174.281-.369.265-.619-.045-.697-.69-1.089-1.326-.804a2.13 2.13 0 00-.3.174c-1.117.747-2.341.978-3.657.755a4.805 4.805 0 01-1.901-.777c-.242-.163-.501-.29-.803-.248-.4.053-.624.318-.746.677-.13.38.029.682.306.928a4.79 4.79 0 002.2 1.127c.357.078.718.14 1.078.209l.058.066c-.1.06-.195.13-.283.207-.813.81-1.629 1.62-2.433 2.438-.392.4-.377.934.01 1.311.388.377.879.378 1.292-.016l.174-.174c.576-.577 1.15-1.154 1.722-1.73.196-.198.262-.197.457-.006l.158.162 1.753 1.757c.214.214.464.335.777.268a.982.982 0 00.769-.691c.116-.362-.023-.652-.277-.906-.806-.808-1.611-1.617-2.416-2.427-.076-.077-.148-.16-.246-.264zm-.766-2.91c2.048-.002 3.707-1.647 3.705-3.673 0-2.07-1.65-3.724-3.703-3.72a3.697 3.697 0 000 7.393h-.002z"/><path d="M10.512 8.701a1.808 1.808 0 111.812-1.8 1.793 1.793 0 01-1.812 1.8z"/></g></svg>
